!!!OTL: Herr Zachaeus.
!!!OTL-incipit: HERR ZACHAEUS WAR EIN KREUZFIDELES HAUS
!!!COM: Studentenweise
!!!ARE: Europa, Mitteleuropa, Deutschland
!!!SCT: F0512
!!!TXL: @@DE
!!!YEM: Copyright 1995, estate of Helmut Schaffrath.
**kern	**text
*ICvox	*
*clefG2	*
!!Mixed tempo: 3/4, 3/8
*M3/4	*
*k[f#]	*
*G:	*
!LO:TX:a:t=Solo. Das zweite Mal Alle.	!
!LO:TX:a:t=Maessig.	!
!LO:TX:a:t=P:only the highest voice encoded:problem	!
{8.g	Herr
16g	Ʒa-
=1	=1
4g	-chä-
4d	-us,
8.b/	Herr
16b/	Ʒa-
=2	=2
4b/	-chä-
4g}	-us
{8.b/	war
16cc/	ein
=3	=3
4.dd/	kreuʒ-
8ee/	-ſi-
8.dd/	-de-
16cc/	-les
=4	=4
(>4cc/	Haus!
4b/)}	.
{8.g	Herr
16g	Ʒa-
=1	=1
4g	-chä-
4d	-us,
8.b/	Herr
16b/	Ʒa-
=2	=2
4b/	-chä-
4g}	-us
{8.b/	war
16cc/	ein
=3	=3
4.dd/	kreuʒ-
8ee/	-ſi-
8.dd/	-de-
16cc/	-les
=4	=4
(>4cc/	Haus!
4b/)	.
8.r}	.
!LO:TX:a:t=Das zweite Mal Alle.	!
{16dd	Er
=5	=5
8.dd	trank
16dd	aus
4.dd	keinem
8ee	.
=6	=6
8.dd	lee-
16cc	-ren
2cc/}	Glas,
=7	=7
{8b/	li-
8g	-rum
4.dd	la-
8b/	-rum,
=8	=8
8.b/	was
16a	iſt
2a}	das,
=9	=9
{8.b/	er
16cc/	und
4.dd/	ſei-
8b/	-ne
=10	=10
8bq	.
4a'	Gä-
4g'	-ſte.
8.r}	.
{16dd	Er
=5	=5
8.dd	trank
16dd	aus
4.dd	keinem
8ee	.
=6	=6
8.dd	lee-
16cc	-ren
2cc/}	Glas,
=7	=7
{8b/	li-
8g	-rum
4.dd	la-
8b/	-rum,
=8	=8
8.b/	was
16a	iſt
2a}	das,
=9	=9
{8.b/	er
16cc/	und
4.dd/	ſei-
8b/	-ne
=10	=10
8bq	.
4a'	Gä-
4g'	-ſte.
4r}	.
=11	=11
!LO:TX:a:t=Einer.	!
{4.g	Ei,
8a	was
8b	hat
8cc	er
=12	=12
8dd	denn
8d	ge-
4g	-than?
4r}	.
=13	=13
!LO:TX:a:t=Alle.	!
{4.g	Ei,
8a	was
8b/	hat
8cc/	er
=14	=14
8dd	denn
8d	ge-
4g	-than?
4r}	.
=15	=15
!LO:TX:a:t=Zu Zweien. Dann Alle.	!
{8.dd	Er
16cc	hat's
4b/	immer,
4dd	.
=16	=16
8ee	immer,
8dd	.
4cc/	im-
4cc/}	-mer,
=17	=17
{8.cc/	er
16b/	hat's
4a	immer,
4cc/	.
=18	=18
8dd/	immer,
8cc/	.
4b/	im-
4b/}	-mer,
=19	=19
{8g	er
8g	hat's
8a	immer,
8a	.
8b/	immer,
8b/	.
=20	=20
8cc/	immer
8cc#/	.
4.dd/	ſo
8dd/	ge-
=21	=21
2g	-macht!
4r}	.
=21	=21
{8.dd	Er
16cc	hat's
4b/	immer,
4dd	.
=16	=16
8ee	immer,
8dd	.
4cc/	im-
4cc/}	-mer,
=17	=17
{8.cc/	er
16b/	hat's
4a	immer,
4cc/	.
=18	=18
8dd/	immer,
8cc/	.
4b/	im-
4b/}	-mer,
=19	=19
{8g	er
8g	hat's
8a	immer,
8a	.
8b/	immer,
8b/	.
=20	=20
8cc/	immer
8cc#/	.
4.dd/	ſo
8dd/	ge-
=21	=21
2g	-macht!
4r}	.
=23	=23
*M3/8	*
!LO:TX:a:t=Schnell Alle bei der Wiederholung.	!
{8.g	Lau-
16a	-ter
16b/	gu-
!LO:N:vis=8	!
16cc/	-te
=22	=22
8dd/	Dinge
8b/	.
8a/	ſind
=23	=23
4b/	das!
8r}	.
=23	=23
{8.g	Lau-
16a	-ter
16b/	gu-
!LO:N:vis=8	!
16cc/	-te
=22	=22
8dd/	Dinge
8b/	.
8a/	ſind
=23	=23
4b/	das!
8r}	.
=23	=23
!LO:TX:a:t=Alle.	!
{8dd	Wenn
8dd	man
8dd	brav
=23	=23
8ee	trinkt
8ee	und
8ee}	ißt,
=24	=24
{8cc/	und
8cc/	da-
8cc/	-bei
=23	=23
8dd	lu-
8dd	-ſtig
8dd}	iſt;
=25	=25
{8.g	lau-
16a	-ter
16b/	gu-
16cc/	-te
=23	=23
8dd	Din-
8b/	-ge
8a	ſind
=26	=26
8g	das!
16b/	Val-
16b/	-le-
16b/	-ral-
16b/	-le-
=23	=23
4b/	-ra!
8r}	.
==	==
!!!AGN: Studenten -, Trink - Lied
!!!ONB: ESAC (Essen Associative Code) Database: FINK
!!!AMT: simple triple
!!!AIN: vox
!!!EED: Helmut Schaffrath
!!!EEV: 1.0
!!!RDF**kern: > = above
!!!GTL: Studentenlieder
!!Text: Studentenlied
!!!source: Musikalischer Hausschatz der Deutschen. Eine Sammlung von über 1000 Liedern und Gesängen mit Singstimmen und Klavierbegleitung. Leipzig, Litterarisches Verlags-Haus.
!!!page: 325
!!!URL-scan: https://www.digitale-sammlungen.de/en/view/bsb11144622?page=302
!!!ENC: Anna Maria Matuszewska
!!!EEV: 2024/08/01
*-	*-
